Breeze Round Light/places/16/mail-folder-outbox.svg

<svg xmlns="http://www.w3.org/2000/svg" viewBox="0 0 16 16">
  <defs id="defs3051">
    <style type="text/css" id="current-color-scheme">
      .ColorScheme-Text {
        color:#232629;
      }
      </style>
  </defs>
    <path 
        style="fill:currentColor;fill-opacity:1;stroke:none" 
        d="M 8 2 L 5 5 L 7 5 L 7 7 L 9 7 L 9 5 L 10 5 L 11 5 L 8 2 z M 3.8828125 6 L 1 10.994141 L 1 11.003906 L 1 12.996094 L 1 14.003906 L 4 14.003906 L 15 14.003906 L 15 13.003906 L 15 11.011719 L 15 11.001953 L 12.117188 6.0078125 L 12 6.0078125 L 10 6.0078125 L 10 7 L 11.539062 7 L 13.847656 11 L 12 11 L 11 12 L 5 12 L 4 11 L 2.1503906 11 L 4.4589844 7 L 6 7 L 6 6.0078125 L 5.0371094 6.0078125 L 3.8828125 6.0078125 L 3.8828125 6 z M 2 1041.3613 L 2 1042.3613 L 7 1042.3613 L 7 1044.3613 L 9 1044.3613 L 9 1042.3613 L 9 1041.3613 L 2 1041.3613 z " 
        class="ColorScheme-Text"/>
</svg>

<?xml version="1.0" encoding="UTF-8" standalone="no"?>
<svg
   viewBox="0 0 16 16"
   version="1.1"
   id="svg1"
   sodipodi:docname="mail-folder-outbox.svg"
   inkscape:version="1.3.2 (091e20ef0f, 2023-11-25)"
   xmlns:inkscape="http://www.inkscape.org/namespaces/inkscape"
   xmlns:sodipodi="http://sodipodi.sourceforge.net/DTD/sodipodi-0.dtd"
   xmlns="http://www.w3.org/2000/svg"
   xmlns:svg="http://www.w3.org/2000/svg">
  <sodipodi:namedview
     id="namedview1"
     pagecolor="#ffffff"
     bordercolor="#999999"
     borderopacity="1"
     inkscape:showpageshadow="2"
     inkscape:pageopacity="0"
     inkscape:pagecheckerboard="0"
     inkscape:deskcolor="#d1d1d1"
     inkscape:zoom="47.75"
     inkscape:cx="8"
     inkscape:cy="8"
     inkscape:window-width="1920"
     inkscape:window-height="996"
     inkscape:window-x="0"
     inkscape:window-y="0"
     inkscape:window-maximized="1"
     inkscape:current-layer="svg1" />
  <defs
     id="defs3051">
    <style
       type="text/css"
       id="current-color-scheme">.ColorScheme-Text {color:#fcfcfc;}</style>
  </defs>
  <path
     style="fill:#000000"
     d="M 8,2 5,5 H 7 V 7 H 9 V 5 h 1 1 z M 3.9,6 1,11 v 0 1 c 0,0 0,2 2,2 2,0 8,0 10,0 2,0 2,-2 2,-2 v -1 0 L 12.1,6 H 12 10 v 1 h 1.5 l 2.4,4 H 12 l -1,1 H 5 L 4,11 H 2.1 L 4.5,7 H 6 V 6 H 5 Z M 2,1041.4 v 1 h 5 v 2 h 2 v -2 -1 z"
     class="ColorScheme-Text"
     id="path1" />
</svg>
